X: 761
M: C
L: 1/8
K: G
V: 1
|:\
|:\
gabg aegd | Bd-de =f>gaf |\
gabg aegd | (e/f/g) dB TA>GE2 :|
V: 2 clef=bass middle=d
|:\
g2g2 g2g2 | g2g2 g2g2 |\
g2g2 g2g2 | g2g2 e2e2 :|
|:\
g2g2 g2g2 | g2g2 g2g2 |\
g2g2 g2g2 | g2g2 e2e2 :|

